components/ui-node-icon/src/addNewColumn/addNewColumn.large.svg

<svg width="32" height="32" viewBox="0 0 32 32" fill="none" xmlns="http://www.w3.org/2000/svg">
  <path fill-rule="evenodd" clip-rule="evenodd" d="M17 6C17 4.34315 15.6569 3 14 3H8C6.34315 3 5 4.34315 5 6V26C5 27.6569 6.34315 29 8 29H14C14.1087 29 14.216 28.9942 14.3217 28.983C12.2947 27.3327 11 24.8175 11 22C11 18.0813 13.5044 14.7476 17 13.5121V6Z" fill="var(--tbl--colors--icons--clean--secondary)"/>
  <path fill-rule="evenodd" clip-rule="evenodd" d="M20 31C24.9706 31 29 26.9706 29 22C29 17.0294 24.9706 13 20 13C15.0294 13 11 17.0294 11 22C11 26.9706 15.0294 31 20 31ZM19 19C19 18.4477 19.4477 18 20 18C20.5523 18 21 18.4477 21 19V21H23C23.5523 21 24 21.4477 24 22C24 22.5523 23.5523 23 23 23H21V25C21 25.5523 20.5523 26 20 26C19.4477 26 19 25.5523 19 25V23H17C16.4477 23 16 22.5523 16 22C16 21.4477 16.4477 21 17 21H19V19Z" fill="var(--tbl--colors--icons--clean--primary)"/>
</svg>

<svg xmlns="http://www.w3.org/2000/svg" width="32" height="32" fill="none" viewBox="0 0 32 32">
  <path fill="var(--tbl--colors--icons--clean--secondary)" fill-rule="evenodd" d="M17 6a3 3 0 0 0-3-3H8a3 3 0 0 0-3 3v20a3 3 0 0 0 3 3h6c.109 0 .216-.006.322-.017A9.004 9.004 0 0 1 17 13.513V6Z" clip-rule="evenodd"/>
  <path fill="var(--tbl--colors--icons--clean--primary)" fill-rule="evenodd" d="M20 31a9 9 0 1 0 0-18 9 9 0 0 0 0 18Zm-1-12a1 1 0 1 1 2 0v2h2a1 1 0 1 1 0 2h-2v2a1 1 0 1 1-2 0v-2h-2a1 1 0 1 1 0-2h2v-2Z" clip-rule="evenodd"/>
</svg>
